X: 152
P: Longways for as many as will
M: C|
L: 1/8
K: C
cBcd cdcd | edef efef | gfga gagf | edef efef |\
g2d2 g2d2 | g2d2 g2d2 | c2B>A A3G | G6 :|\
d2de dcBA |
g2ga gfed | c6 ef | ge ge ge ge | c6 fg |\
af cf af cf | af cf af ef | g2(fe) d3c | c6 |]

